Newaita-dark/actions/22/document-edit-decrypt-verify.svg

<?xml version="1.0" encoding="UTF-8"?>
<svg xmlns="http://www.w3.org/2000/svg" xmlns:xlink="http://www.w3.org/1999/xlink" width="22pt" height="22pt" viewBox="0 0 22 22" version="1.1">
<g id="surface1">
<path style=" stroke:none;fill-rule:nonzero;fill:rgb(63.137257%,53.333336%,49.803922%);fill-opacity:1;" d="M 12.507812 9.039062 C 9.988281 9.039062 7.957031 11.070312 7.957031 13.589844 C 7.957031 16.109375 9.988281 18.136719 12.507812 18.136719 C 13.503906 18.136719 14.425781 17.816406 15.175781 17.277344 L 17.910156 20.011719 L 18.875 19.046875 L 16.148438 16.320312 C 16.71875 15.558594 17.054688 14.613281 17.054688 13.589844 C 17.054688 11.070312 15.027344 9.039062 12.507812 9.039062 Z M 12.507812 10.40625 C 14.269531 10.40625 15.691406 11.824219 15.691406 13.589844 C 15.691406 15.351562 14.269531 16.773438 12.507812 16.773438 C 10.742188 16.773438 9.324219 15.351562 9.324219 13.589844 C 9.324219 11.824219 10.742188 10.40625 12.507812 10.40625 Z M 12.507812 10.40625 "/>
<path style=" stroke:none;fill-rule:nonzero;fill:rgb(47.058824%,56.470591%,61.176473%);fill-opacity:1;" d="M 4.546875 10.175781 L 6.367188 10.175781 L 6.367188 8.359375 L 4.546875 8.359375 Z M 4.546875 10.175781 "/>
<path style=" stroke:none;fill-rule:nonzero;fill:rgb(47.058824%,56.470591%,61.176473%);fill-opacity:1;" d="M 6.367188 8.359375 L 8.1875 8.359375 L 8.1875 6.539062 L 6.367188 6.539062 Z M 6.367188 8.359375 "/>
<path style=" stroke:none;fill-rule:nonzero;fill:rgb(47.058824%,56.470591%,61.176473%);fill-opacity:1;" d="M 4.546875 6.539062 L 6.367188 6.539062 L 6.367188 4.71875 L 4.546875 4.71875 Z M 4.546875 6.539062 "/>
<path style=" stroke:none;fill-rule:nonzero;fill:rgb(47.058824%,56.470591%,61.176473%);fill-opacity:1;" d="M 15.464844 6.539062 L 17.28125 6.539062 L 17.28125 4.71875 L 15.464844 4.71875 Z M 15.464844 6.539062 "/>
<path style=" stroke:none;fill-rule:nonzero;fill:rgb(47.058824%,56.470591%,61.176473%);fill-opacity:1;" d="M 8.1875 6.539062 L 10.003906 6.539062 L 10.003906 4.71875 L 8.1875 4.71875 Z M 8.1875 6.539062 "/>
<path style=" stroke:none;fill-rule:nonzero;fill:rgb(47.058824%,56.470591%,61.176473%);fill-opacity:1;" d="M 11.824219 6.539062 L 13.644531 6.539062 L 13.644531 4.71875 L 11.824219 4.71875 Z M 11.824219 6.539062 "/>
<path style=" stroke:none;fill-rule:nonzero;fill:rgb(47.058824%,56.470591%,61.176473%);fill-opacity:1;" d="M 13.644531 4.71875 L 15.464844 4.71875 L 15.464844 2.902344 L 13.644531 2.902344 Z M 13.644531 4.71875 "/>
<path style=" stroke:none;fill-rule:nonzero;fill:rgb(47.058824%,56.470591%,61.176473%);fill-opacity:1;" d="M 6.367188 4.71875 L 8.1875 4.71875 L 8.1875 2.902344 L 6.367188 2.902344 Z M 6.367188 4.71875 "/>
<path style=" stroke:none;fill-rule:nonzero;fill:rgb(47.058824%,56.470591%,61.176473%);fill-opacity:1;" d="M 10.003906 4.71875 L 11.824219 4.71875 L 11.824219 2.902344 L 10.003906 2.902344 Z M 10.003906 4.71875 "/>
<path style=" stroke:none;fill-rule:nonzero;fill:rgb(47.058824%,56.470591%,61.176473%);fill-opacity:1;" d="M 4.546875 2.902344 L 6.367188 2.902344 L 6.367188 1.082031 L 4.546875 1.082031 Z M 4.546875 2.902344 "/>
<path style=" stroke:none;fill-rule:nonzero;fill:rgb(47.058824%,56.470591%,61.176473%);fill-opacity:1;" d="M 15.464844 2.902344 L 17.28125 2.902344 L 17.28125 1.082031 L 15.464844 1.082031 Z M 15.464844 2.902344 "/>
<path style=" stroke:none;fill-rule:nonzero;fill:rgb(47.058824%,56.470591%,61.176473%);fill-opacity:1;" d="M 8.1875 2.902344 L 10.003906 2.902344 L 10.003906 1.082031 L 8.1875 1.082031 Z M 8.1875 2.902344 "/>
<path style=" stroke:none;fill-rule:nonzero;fill:rgb(47.058824%,56.470591%,61.176473%);fill-opacity:1;" d="M 11.824219 2.902344 L 13.644531 2.902344 L 13.644531 1.082031 L 11.824219 1.082031 Z M 11.824219 2.902344 "/>
<path style=" stroke:none;fill-rule:nonzero;fill:rgb(47.058824%,56.470591%,61.176473%);fill-opacity:1;" d="M 17.28125 8.359375 L 19.101562 8.359375 L 19.101562 6.539062 L 17.28125 6.539062 Z M 17.28125 8.359375 "/>
<path style=" stroke:none;fill-rule:nonzero;fill:rgb(47.058824%,56.470591%,61.176473%);fill-opacity:1;" d="M 17.28125 4.71875 L 19.101562 4.71875 L 19.101562 2.902344 L 17.28125 2.902344 Z M 17.28125 4.71875 "/>
<path style=" stroke:none;fill-rule:nonzero;fill:rgb(47.058824%,56.470591%,61.176473%);fill-opacity:1;" d="M 2.730469 8.359375 L 4.546875 8.359375 L 4.546875 6.539062 L 2.730469 6.539062 Z M 2.730469 8.359375 "/>
<path style=" stroke:none;fill-rule:nonzero;fill:rgb(47.058824%,56.470591%,61.176473%);fill-opacity:1;" d="M 2.730469 4.71875 L 4.546875 4.71875 L 4.546875 2.902344 L 2.730469 2.902344 Z M 2.730469 4.71875 "/>
<path style=" stroke:none;fill-rule:nonzero;fill:rgb(74.117649%,74.117649%,74.117649%);fill-opacity:1;" d="M 4.09375 20.183594 C 3.335938 20.183594 2.730469 19.574219 2.730469 18.820312 L 2.730469 10.175781 L 4.09375 10.175781 L 4.09375 17.910156 C 4.09375 18.414062 4.5 18.820312 5.003906 18.820312 L 16.828125 18.820312 C 17.332031 18.820312 17.738281 18.414062 17.738281 17.910156 L 17.738281 10.175781 L 19.101562 10.175781 L 19.101562 18.820312 C 19.101562 19.574219 18.492188 20.183594 17.738281 20.183594 Z M 4.09375 20.183594 "/>
</g>
</svg>

<svg xmlns="http://www.w3.org/2000/svg" width="22pt" height="22pt" viewBox="0 0 22 22"><path d="M12.508 9.04a4.543 4.543 0 0 0-4.551 4.55 4.54 4.54 0 0 0 4.55 4.547c.997 0 1.919-.32 2.669-.86l2.734 2.735.965-.965-2.727-2.727c.57-.761.907-1.707.907-2.73a4.54 4.54 0 0 0-4.547-4.55zm0 1.366a3.177 3.177 0 0 1 3.183 3.184 3.18 3.18 0 0 1-3.183 3.183 3.177 3.177 0 0 1-3.184-3.183 3.174 3.174 0 0 1 3.184-3.184zm0 0" fill="#a1887f"/><path d="M4.547 10.176h1.82V8.359h-1.82zm0 0" fill="#78909c"/><path d="M6.367 8.36h1.82V6.54h-1.82zm0 0M4.547 6.54h1.82V4.718h-1.82zm0 0M15.465 6.54h1.816V4.718h-1.816zm0 0M8.188 6.54h1.816V4.718H8.188zm0 0M11.824 6.54h1.82V4.718h-1.82zm0 0" fill="#78909c"/><path d="M13.645 4.719h1.82V2.902h-1.82zm0 0M6.367 4.719h1.82V2.902h-1.82zm0 0M10.004 4.719h1.82V2.902h-1.82zm0 0M4.547 2.902h1.82v-1.82h-1.82zm0 0M15.465 2.902h1.816v-1.82h-1.816zm0 0M8.188 2.902h1.816v-1.82H8.188zm0 0M11.824 2.902h1.82v-1.82h-1.82zm0 0M17.281 8.36h1.82V6.54h-1.82zm0 0M17.281 4.719h1.82V2.902h-1.82zm0 0M2.73 8.36h1.817V6.54H2.73zm0 0M2.73 4.719h1.817V2.902H2.73zm0 0" fill="#78909c"/><path d="M4.094 20.184A1.36 1.36 0 0 1 2.73 18.82v-8.644h1.364v7.734c0 .504.406.91.91.91h11.824c.504 0 .91-.406.91-.91v-7.734h1.364v8.644c0 .754-.61 1.364-1.364 1.364zm0 0" fill="#bdbdbd"/></svg>
